resources/haticons/SVG/logout1.svg

<!-- Generated by IcoMoon.io -->
<svg version="1.1" xmlns="http://www.w3.org/2000/svg" width="24" height="24" viewBox="0 0 24 24">
<title>logout1</title>
<path d="M3.984 5.016v13.969h8.016v2.016h-8.016q-0.797 0-1.383-0.609t-0.586-1.406v-13.969q0-0.797 0.586-1.406t1.383-0.609h8.016v2.016h-8.016zM17.016 6.984l4.969 5.016-4.969 5.016-1.406-1.453 2.578-2.578h-10.172v-1.969h10.172l-2.578-2.625z"></path>
</svg>

<svg xmlns="http://www.w3.org/2000/svg" width="24" height="24"><path d="M3.984 5.016v13.969H12v2.016H3.984q-.797 0-1.383-.609t-.586-1.406V5.017q0-.797.586-1.406t1.383-.609H12v2.016H3.984zm13.032 1.968L21.985 12l-4.969 5.016-1.406-1.453 2.578-2.578H8.016v-1.969h10.172L15.61 8.391z"/></svg>
